svgs/sharp-light/transformer-bolt.svg

<svg xmlns="http://www.w3.org/2000/svg" viewBox="0 0 384 512"><!--! Font Awesome Pro 6.6.0 by @fontawesome - https://fontawesome.com License - https://fontawesome.com/license (Commercial License) Copyright 2024 Fonticons, Inc. --><path d="M128 0L96 0l0 16 0 16L64 32 48 32l0 32 16 0 96 0 16 0 0-32-16 0-32 0 0-16 0-16zM288 0L256 0l0 16 0 16-32 0-16 0 0 32 16 0 96 0 16 0 0-32-16 0-32 0 0-16 0-16zM64 96L48 96l0 32 16 0 96 0 16 0 0-32-16 0L64 96zm160 0l-16 0 0 32 16 0 96 0 16 0 0-32-16 0-96 0zM16 160L0 160l0 32 16 0 16 0 0 288-16 0L0 480l0 32 16 0 32 0 288 0 32 0 16 0 0-32-16 0-16 0 0-288 16 0 16 0 0-32-16 0-32 0L48 160l-32 0zM64 480l0-288 256 0 0 288L64 480zM216 224l-6.6 0-4.7 4.7-104 104L96 337.4l0 6.6 0 8 0 16 16 0 38.3 0-6.2 62.4L142.3 448l17.7 0 8 0 6.6 0 4.7-4.7 104-104 4.7-4.7 0-6.6 0-8 0-16-16 0-38.3 0 6.2-62.4 1.8-17.6L224 224l-8 0zM142.6 336l61.9-61.9-4.4 44.3L198.3 336l17.7 0 25.4 0-61.9 61.9 4.4-44.3 1.8-17.6L168 336l-25.4 0z"/></svg>

<svg xmlns="http://www.w3.org/2000/svg" viewBox="0 0 384 512"><!--! Font Awesome Pro 6.4.2 by @fontawesome - https://fontawesome.com License - https://fontawesome.com/license (Commercial License) Copyright 2023 Fonticons, Inc. --><path d="M128 0H96V16 32H64 48V64H64h96 16V32H160 128V16 0zM288 0H256V16 32H224 208V64h16 96 16V32H320 288V16 0zM64 96H48v32H64h96 16V96H160 64zm160 0H208v32h16 96 16V96H320 224zM16 160H0v32H16 32V480H16 0v32H16 48 336h32 16V480H368 352V192h16 16V160H368 336 48 16zM64 480V192H320V480H64zM216 224h-6.6l-4.7 4.7-104 104L96 337.4V344v8 16h16 38.3l-6.2 62.4L142.3 448H160h8 6.6l4.7-4.7 104-104 4.7-4.7V328v-8V304H272 233.7l6.2-62.4 1.8-17.6H224h-8zM142.6 336l61.9-61.9-4.4 44.3L198.3 336H216h25.4l-61.9 61.9 4.4-44.3 1.8-17.6H168 142.6z"/></svg>
